X:79
T:Paynes 1st Set Of Quadrilles No.4. Le4.079
B:L.Leadley MS#4 c1850
Z:Village Music Project, 2016 Steve Mansfield
M:2/4
L:1/8
Q:2/4=60
N:* fff in Mss
K:A
aa/a/ | aaaa | ad aa/a/ | afed | e2 aa/a/ |
aaaa | ad bb/b/ | agfe | d2 H ||
"*"ff/f/ | fffa | gg gg/g/ | gggb | a2 cc/c/ |
bbgg | aa ff/f/ | ggec | f2 !segno! ||
fg/g/ | aaaa | bb bb/b/ | aa gg | f2 ff/g/ |
aaaa | bb bg/b/ | agfe | d2 !segno! |]

